TH1/docu_draw_e34.svg

<svg xmlns="http://www.w3.org/2000/svg" viewBox="0 0 1200 800" preserveAspectRatio="none" width="1200" height="800">
 <path d="M0,0H1200V800H0Z" style="fill: white;"></path>
 <g>
  <svg viewBox="0 0 576 784" preserveAspectRatio="none" x="12" y="8" width="576" height="784">
   <path d="M0,0H576V784H0Z" style="fill: white;"></path>
   <g>
    <g transform="translate(58,78)">
     <path d="M0,0H461V627H0Z" style="fill: white; stroke: black; stroke-width: 1;"></path>
     <svg x="0" y="0" overflow="hidden" width="461" height="627" viewBox="0 0 461 627">
      <g>
       <path d="M-77,439C-73.82,443.11,-41.36,510.27,-26,505S10.53,407.12,26,402S60.96,398.93,77,395S125.54,327.98,128,322S176.37,153.18,179,147S223.49,89.52,231,81S279.66,24.14,282,30S323.9,327.52,333,336S379.42,132.54,384,125S426.83,176.57,435,168S486.1,17.64,487,15L487,237C485.99,239.78,443.82,371.42,435,380S389.05,331.23,384,339S342.75,545.41,333,537S284.62,257.14,282,251S239.11,289.43,231,298S181.93,353.54,179,360S130.75,517.74,128,524S93.02,588.05,77,592S41.48,593.9,26,599S-10.39,689.08,-26,694S-73.5,637.18,-77,633Z" style="fill: red;"></path>
      </g>
     </svg>
     <g>
      <g transform="translate(0,627)">
       <path d="M0,0h461M0,-12v12m17,-12v12m17,-12v12m17,-24v24m17,-12v12m17,-12v12m17,-12v12m18,-12v12m17,-24v24m17,-12v12m17,-12v12m17,-12v12m17,-12v12m17,-24v24m17,-12v12m17,-12v12m17,-12v12m17,-12v12m17,-24v24m17,-12v12m17,-12v12m18,-12v12m17,-12v12m17,-24v24m17,-12v12m17,-12v12m17,-12v12m17,-12v12" style="stroke: black; stroke-width: 1;"></path>
       <g font-family="Arial" font-size="20" space="preserve" fill="black" text-anchor="middle">
        <text dy=".8em" transform="translate(51,5)">
         -0.6
        </text>
        <text dy=".8em" transform="translate(137,5)">
         -0.5
        </text>
        <text dy=".8em" transform="translate(222,5)">
         -0.4
        </text>
        <text dy=".8em" transform="translate(307,5)">
         -0.3
        </text>
        <text dy=".8em" transform="translate(393,5)">
         -0.2
        </text>
       </g>
      </g>
      <g>
       <path d="M0,0v627M9,621h-9m9,-15h-9m17,-14h-17m9,-14h-9m9,-14h-9m9,-14h-9m9,-14h-9m17,-14h-17m9,-15h-9m9,-14h-9m9,-14h-9m9,-14h-9m17,-14h-17m9,-14h-9m9,-14h-9m9,-14h-9m9,-15h-9m17,-14h-17m9,-14h-9m9,-14h-9m9,-14h-9m9,-14h-9m17,-14h-17m9,-14h-9m9,-15h-9m9,-14h-9m9,-14h-9m17,-14h-17m9,-14h-9m9,-14h-9m9,-14h-9m9,-14h-9m17,-15h-17m9,-14h-9m9,-14h-9m9,-14h-9m9,-14h-9m17,-14h-17m9,-14h-9m9,-14h-9m9,-15h-9m9,-14h-9m17,-14h-17m9,-14h-9" style="stroke: black; stroke-width: 1;"></path>
       <g font-family="Arial" font-size="20" space="preserve" fill="black" text-anchor="end">
        <text dy=".4em" transform="translate(-3,592)">
         180
        </text>
        <text dy=".4em" transform="translate(-3,522)">
         190
        </text>
        <text dy=".4em" transform="translate(-3,451)">
         200
        </text>
        <text dy=".4em" transform="translate(-3,380)">
         210
        </text>
        <text dy=".4em" transform="translate(-3,310)">
         220
        </text>
        <text dy=".4em" transform="translate(-3,239)">
         230
        </text>
        <text dy=".4em" transform="translate(-3,168)">
         240
        </text>
        <text dy=".4em" transform="translate(-3,98)">
         250
        </text>
        <text dy=".4em" transform="translate(-3,27)">
         260
        </text>
       </g>
      </g>
     </g>
    </g>
    <g transform="translate(449,51)" font-family="Arial" font-size="11" space="preserve" fill="black">
     <path d="M0,0H115V125H0Z" style="fill: white; stroke: black; stroke-width: 1;"></path>
     <text text-anchor="middle" dy=".4em" transform="translate(58,16)">
      he4
     </text>
     <text text-anchor="start" dy=".4em" transform="translate(6,47)">
      Entries
     </text>
     <text text-anchor="end" dy=".4em" transform="translate(109,47)">
      10000
     </text>
     <text text-anchor="start" dy=".4em" transform="translate(6,78)">
      Mean
     </text>
     <text text-anchor="end" dy=".4em" transform="translate(109,78)">
      -0.4081
     </text>
     <text text-anchor="start" dy=".4em" transform="translate(6,109)">
      Std Dev
     </text>
     <text text-anchor="end" dy=".4em" transform="translate(109,109)">
      0.1687
     </text>
     <path d="M0,31h115" style="stroke: black; stroke-width: 1;"></path>
    </g>
    <g transform="translate(86,4)" font-family="Arial" font-size="20" space="preserve">
     <text fill="black" text-anchor="middle" dy=".4em" transform="translate(202,22)">
      Distribution drawn with option E4
     </text>
    </g>
   </g>
  </svg>
  <svg viewBox="0 0 576 784" preserveAspectRatio="none" x="612" y="8" width="576" height="784">
   <path d="M0,0H576V784H0Z" style="fill: white;"></path>
   <g>
    <g transform="translate(58,78)">
     <path d="M0,0H461V627H0Z" style="fill: white; stroke: black; stroke-width: 1;"></path>
     <svg x="0" y="0" overflow="hidden" width="461" height="627" viewBox="0 0 461 627">
      <g>
       <path d="M-77,439l51,66l52,-103l51,-7l51,-73l51,-175l52,-66l51,-51l51,306l51,-211l51,43l52,-153L487,237l-52,143l-51,-41l-51,198l-51,-286l-51,47l-52,62l-51,164l-51,68l-51,7l-52,95l-51,-61Z" style="fill: red;"></path>
      </g>
     </svg>
     <g>
      <g transform="translate(0,627)">
       <path d="M0,0h461M0,-12v12m17,-12v12m17,-12v12m17,-24v24m17,-12v12m17,-12v12m17,-12v12m18,-12v12m17,-24v24m17,-12v12m17,-12v12m17,-12v12m17,-12v12m17,-24v24m17,-12v12m17,-12v12m17,-12v12m17,-12v12m17,-24v24m17,-12v12m17,-12v12m18,-12v12m17,-12v12m17,-24v24m17,-12v12m17,-12v12m17,-12v12m17,-12v12" style="stroke: black; stroke-width: 1;"></path>
       <g font-family="Arial" font-size="20" space="preserve" fill="black" text-anchor="middle">
        <text dy=".8em" transform="translate(51,5)">
         -0.6
        </text>
        <text dy=".8em" transform="translate(137,5)">
         -0.5
        </text>
        <text dy=".8em" transform="translate(222,5)">
         -0.4
        </text>
        <text dy=".8em" transform="translate(307,5)">
         -0.3
        </text>
        <text dy=".8em" transform="translate(393,5)">
         -0.2
        </text>
       </g>
      </g>
      <g>
       <path d="M0,0v627M9,621h-9m9,-15h-9m17,-14h-17m9,-14h-9m9,-14h-9m9,-14h-9m9,-14h-9m17,-14h-17m9,-15h-9m9,-14h-9m9,-14h-9m9,-14h-9m17,-14h-17m9,-14h-9m9,-14h-9m9,-14h-9m9,-15h-9m17,-14h-17m9,-14h-9m9,-14h-9m9,-14h-9m9,-14h-9m17,-14h-17m9,-14h-9m9,-15h-9m9,-14h-9m9,-14h-9m17,-14h-17m9,-14h-9m9,-14h-9m9,-14h-9m9,-14h-9m17,-15h-17m9,-14h-9m9,-14h-9m9,-14h-9m9,-14h-9m17,-14h-17m9,-14h-9m9,-14h-9m9,-15h-9m9,-14h-9m17,-14h-17m9,-14h-9" style="stroke: black; stroke-width: 1;"></path>
       <g font-family="Arial" font-size="20" space="preserve" fill="black" text-anchor="end">
        <text dy=".4em" transform="translate(-3,592)">
         180
        </text>
        <text dy=".4em" transform="translate(-3,522)">
         190
        </text>
        <text dy=".4em" transform="translate(-3,451)">
         200
        </text>
        <text dy=".4em" transform="translate(-3,380)">
         210
        </text>
        <text dy=".4em" transform="translate(-3,310)">
         220
        </text>
        <text dy=".4em" transform="translate(-3,239)">
         230
        </text>
        <text dy=".4em" transform="translate(-3,168)">
         240
        </text>
        <text dy=".4em" transform="translate(-3,98)">
         250
        </text>
        <text dy=".4em" transform="translate(-3,27)">
         260
        </text>
       </g>
      </g>
     </g>
    </g>
    <g transform="translate(449,51)" font-family="Arial" font-size="11" space="preserve" fill="black">
     <path d="M0,0H115V125H0Z" style="fill: white; stroke: black; stroke-width: 1;"></path>
     <text text-anchor="middle" dy=".4em" transform="translate(58,16)">
      he4
     </text>
     <text text-anchor="start" dy=".4em" transform="translate(6,47)">
      Entries
     </text>
     <text text-anchor="end" dy=".4em" transform="translate(109,47)">
      10000
     </text>
     <text text-anchor="start" dy=".4em" transform="translate(6,78)">
      Mean
     </text>
     <text text-anchor="end" dy=".4em" transform="translate(109,78)">
      -0.4081
     </text>
     <text text-anchor="start" dy=".4em" transform="translate(6,109)">
      Std Dev
     </text>
     <text text-anchor="end" dy=".4em" transform="translate(109,109)">
      0.1687
     </text>
     <path d="M0,31h115" style="stroke: black; stroke-width: 1;"></path>
    </g>
    <g transform="translate(86,4)" font-family="Arial" font-size="23" space="preserve">
     <text fill="black" text-anchor="middle" dy=".4em" transform="translate(202,22)">
      Distribution drawn option E3
     </text>
    </g>
   </g>
  </svg>
 </g>
</svg>

<svg xmlns="http://www.w3.org/2000/svg" viewBox="0 0 1200 800" preserveAspectRatio="none" width="1200" height="800">
 <path d="M0,0H1200V800H0Z" style="fill: white;"></path>
 <g>
  <svg viewBox="0 0 576 784" preserveAspectRatio="none" x="12" y="8" width="576" height="784">
   <path d="M0,0H576V784H0Z" style="fill: white;"></path>
   <g>
    <g transform="translate(58,78)">
     <path d="M0,0H461V627H0Z" style="fill: white; stroke: black; stroke-width: 1;"></path>
     <svg x="0" y="0" overflow="hidden" width="461" height="627" viewBox="0 0 461 627">
      <g>
       <path d="M-77,439C-73.82,443.11,-41.36,510.27,-26,505S10.53,407.12,26,402S60.96,398.93,77,395S125.54,327.98,128,322S176.37,153.18,179,147S223.49,89.52,231,81S279.66,24.14,282,30S323.9,327.52,333,336S379.42,132.54,384,125S426.83,176.57,435,168S486.1,17.64,487,15L487,237C485.99,239.78,443.82,371.42,435,380S389.05,331.23,384,339S342.75,545.41,333,537S284.62,257.14,282,251S239.11,289.43,231,298S181.93,353.54,179,360S130.75,517.74,128,524S93.02,588.05,77,592S41.48,593.9,26,599S-10.39,689.08,-26,694S-73.5,637.18,-77,633Z" style="fill: red;"></path>
      </g>
     </svg>
     <g>
      <g transform="translate(0,627)">
       <path d="M0,0h461M0,-12V0M17,-12V0M34,-12V0M51,-24V0M68,-12V0M85,-12V0M102,-12V0M120,-12V0M137,-24V0M154,-12V0M171,-12V0M188,-12V0M205,-12V0M222,-24V0M239,-12V0M256,-12V0M273,-12V0M290,-12V0M307,-24V0M324,-12V0M341,-12V0M359,-12V0M376,-12V0M393,-24V0M410,-12V0M427,-12V0M444,-12V0M461,-12V0" style="stroke: black; stroke-width: 1;"></path>
       <g font-family="Arial" font-size="20" space="preserve" fill="black" text-anchor="middle">
        <text dy=".8em" transform="translate(51,5)">
         -0.6
        </text>
        <text dy=".8em" transform="translate(137,5)">
         -0.5
        </text>
        <text dy=".8em" transform="translate(222,5)">
         -0.4
        </text>
        <text dy=".8em" transform="translate(307,5)">
         -0.3
        </text>
        <text dy=".8em" transform="translate(393,5)">
         -0.2
        </text>
       </g>
      </g>
      <g>
       <path d="M0,0v627M9,621H0M9,606H0M17,592H0M9,578H0M9,564H0M9,550H0M9,536H0M17,522H0M9,507H0M9,493H0M9,479H0M9,465H0M17,451H0M9,437H0M9,423H0M9,409H0M9,394H0M17,380H0M9,366H0M9,352H0M9,338H0M9,324H0M17,310H0M9,296H0M9,281H0M9,267H0M9,253H0M17,239H0M9,225H0M9,211H0M9,197H0M9,183H0M17,168H0M9,154H0M9,140H0M9,126H0M9,112H0M17,98H0M9,84H0M9,70H0M9,55H0M9,41H0M17,27H0M9,13H0" style="stroke: black; stroke-width: 1;"></path>
       <g font-family="Arial" font-size="20" space="preserve" fill="black" text-anchor="end">
        <text dy=".4em" transform="translate(-3,592)">
         180
        </text>
        <text dy=".4em" transform="translate(-3,522)">
         190
        </text>
        <text dy=".4em" transform="translate(-3,451)">
         200
        </text>
        <text dy=".4em" transform="translate(-3,380)">
         210
        </text>
        <text dy=".4em" transform="translate(-3,310)">
         220
        </text>
        <text dy=".4em" transform="translate(-3,239)">
         230
        </text>
        <text dy=".4em" transform="translate(-3,168)">
         240
        </text>
        <text dy=".4em" transform="translate(-3,98)">
         250
        </text>
        <text dy=".4em" transform="translate(-3,27)">
         260
        </text>
       </g>
      </g>
     </g>
    </g>
    <g transform="translate(449,51)" font-family="Arial" font-size="11" space="preserve" fill="black">
     <path d="M0,0H115V125H0Z" style="fill: white; stroke: black; stroke-width: 1;"></path>
     <text text-anchor="middle" dy=".4em" transform="translate(58,16)">
      he4
     </text>
     <text text-anchor="start" dy=".4em" transform="translate(6,47)">
      Entries
     </text>
     <text text-anchor="end" dy=".4em" transform="translate(109,47)">
      10000
     </text>
     <text text-anchor="start" dy=".4em" transform="translate(6,78)">
      Mean
     </text>
     <text text-anchor="end" dy=".4em" transform="translate(109,78)">
      -0.4081
     </text>
     <text text-anchor="start" dy=".4em" transform="translate(6,109)">
      Std Dev
     </text>
     <text text-anchor="end" dy=".4em" transform="translate(109,109)">
      0.1687
     </text>
     <path d="M0,31h115" style="stroke: black; stroke-width: 1;"></path>
    </g>
    <g transform="translate(86,4)" font-family="Arial" font-size="20" space="preserve">
     <text fill="black" text-anchor="middle" dy=".4em" transform="translate(202,22)">
      Distribution drawn with option E4
     </text>
    </g>
   </g>
  </svg>
  <svg viewBox="0 0 576 784" preserveAspectRatio="none" x="612" y="8" width="576" height="784">
   <path d="M0,0H576V784H0Z" style="fill: white;"></path>
   <g>
    <g transform="translate(58,78)">
     <path d="M0,0H461V627H0Z" style="fill: white; stroke: black; stroke-width: 1;"></path>
     <svg x="0" y="0" overflow="hidden" width="461" height="627" viewBox="0 0 461 627">
      <g>
       <path d="M-77,439l51,66l52,-103l51,-7l51,-73l51,-175l52,-66l51,-51l51,306l51,-211l51,43l52,-153L487,237l-52,143l-51,-41l-51,198l-51,-286l-51,47l-52,62l-51,164l-51,68l-51,7l-52,95l-51,-61Z" style="fill: red;"></path>
      </g>
     </svg>
     <g>
      <g transform="translate(0,627)">
       <path d="M0,0h461M0,-12V0M17,-12V0M34,-12V0M51,-24V0M68,-12V0M85,-12V0M102,-12V0M120,-12V0M137,-24V0M154,-12V0M171,-12V0M188,-12V0M205,-12V0M222,-24V0M239,-12V0M256,-12V0M273,-12V0M290,-12V0M307,-24V0M324,-12V0M341,-12V0M359,-12V0M376,-12V0M393,-24V0M410,-12V0M427,-12V0M444,-12V0M461,-12V0" style="stroke: black; stroke-width: 1;"></path>
       <g font-family="Arial" font-size="20" space="preserve" fill="black" text-anchor="middle">
        <text dy=".8em" transform="translate(51,5)">
         -0.6
        </text>
        <text dy=".8em" transform="translate(137,5)">
         -0.5
        </text>
        <text dy=".8em" transform="translate(222,5)">
         -0.4
        </text>
        <text dy=".8em" transform="translate(307,5)">
         -0.3
        </text>
        <text dy=".8em" transform="translate(393,5)">
         -0.2
        </text>
       </g>
      </g>
      <g>
       <path d="M0,0v627M9,621H0M9,606H0M17,592H0M9,578H0M9,564H0M9,550H0M9,536H0M17,522H0M9,507H0M9,493H0M9,479H0M9,465H0M17,451H0M9,437H0M9,423H0M9,409H0M9,394H0M17,380H0M9,366H0M9,352H0M9,338H0M9,324H0M17,310H0M9,296H0M9,281H0M9,267H0M9,253H0M17,239H0M9,225H0M9,211H0M9,197H0M9,183H0M17,168H0M9,154H0M9,140H0M9,126H0M9,112H0M17,98H0M9,84H0M9,70H0M9,55H0M9,41H0M17,27H0M9,13H0" style="stroke: black; stroke-width: 1;"></path>
       <g font-family="Arial" font-size="20" space="preserve" fill="black" text-anchor="end">
        <text dy=".4em" transform="translate(-3,592)">
         180
        </text>
        <text dy=".4em" transform="translate(-3,522)">
         190
        </text>
        <text dy=".4em" transform="translate(-3,451)">
         200
        </text>
        <text dy=".4em" transform="translate(-3,380)">
         210
        </text>
        <text dy=".4em" transform="translate(-3,310)">
         220
        </text>
        <text dy=".4em" transform="translate(-3,239)">
         230
        </text>
        <text dy=".4em" transform="translate(-3,168)">
         240
        </text>
        <text dy=".4em" transform="translate(-3,98)">
         250
        </text>
        <text dy=".4em" transform="translate(-3,27)">
         260
        </text>
       </g>
      </g>
     </g>
    </g>
    <g transform="translate(449,51)" font-family="Arial" font-size="11" space="preserve" fill="black">
     <path d="M0,0H115V125H0Z" style="fill: white; stroke: black; stroke-width: 1;"></path>
     <text text-anchor="middle" dy=".4em" transform="translate(58,16)">
      he4
     </text>
     <text text-anchor="start" dy=".4em" transform="translate(6,47)">
      Entries
     </text>
     <text text-anchor="end" dy=".4em" transform="translate(109,47)">
      10000
     </text>
     <text text-anchor="start" dy=".4em" transform="translate(6,78)">
      Mean
     </text>
     <text text-anchor="end" dy=".4em" transform="translate(109,78)">
      -0.4081
     </text>
     <text text-anchor="start" dy=".4em" transform="translate(6,109)">
      Std Dev
     </text>
     <text text-anchor="end" dy=".4em" transform="translate(109,109)">
      0.1687
     </text>
     <path d="M0,31h115" style="stroke: black; stroke-width: 1;"></path>
    </g>
    <g transform="translate(86,4)" font-family="Arial" font-size="23" space="preserve">
     <text fill="black" text-anchor="middle" dy=".4em" transform="translate(202,22)">
      Distribution drawn option E3
     </text>
    </g>
   </g>
  </svg>
 </g>
</svg>
